packages/admin/admin-icons/icons/arrow-up.svg

<svg xmlns="http://www.w3.org/2000/svg" width="16" height="16" viewBox="0 0 16 16"><path fill="#242424" fill-rule="evenodd" d="M9.6469478,2.1469478 C9.82051415,1.97338145 10.0899386,1.9540963 10.2848067,2.08909235 L10.3540546,2.1469478 L13.3540546,5.1469478 C13.5493167,5.34220994 13.5493167,5.65879243 13.3540546,5.85405458 C13.1804882,6.02762093 12.9110638,6.04690608 12.7161957,5.91191003 L12.6469478,5.85405458 L9.6469478,2.85405458 C9.45168565,2.65879243 9.45168565,2.34220994 9.6469478,2.1469478 Z M2.58909235,5.21619569 L2.6469478,5.1469478 L7.6469478,0.146947798 C7.9409314,-0.147035804 8.42968545,0.0276957142 8.49354607,0.414469164 L8.50050119,0.500501189 L8.50050119,15.5005012 C8.50050119,15.7766436 8.27664356,16.0005012 8.00050119,16.0005012 C7.7550413,16.0005012 7.55089282,15.823626 7.50855686,15.5903768 L7.50050119,15.5005012 L7.50050119,1.70750119 L3.35405458,5.85405458 C3.18048823,6.02762093 2.91106383,6.04690608 2.71619569,5.91191003 L2.6469478,5.85405458 C2.47338145,5.68048823 2.4540963,5.41106383 2.58909235,5.21619569 Z"/></svg>

<svg width="16" height="16" fill="none" viewBox="0 0 16 16">
  <path fill="#242424" fill-rule="evenodd" d="M9.646 2.147a.5.5 0 0 1 .638-.058l.07.058 3 3a.5.5 0 0 1-.638.765l-.07-.058-3-3a.5.5 0 0 1 0-.707ZM2.59 5.217l.057-.07 5-5a.5.5 0 0 1 .847.267L8.5.501v15a.5.5 0 0 1-.992.09L7.5 15.5V1.708L3.354 5.854a.5.5 0 0 1-.638.058l-.07-.058a.5.5 0 0 1-.057-.638Z" clip-rule="evenodd"/>
</svg>
